packages/core/src/svgs/networks/mono/sys.svg

<svg width="24" height="24" viewBox="0 0 24 24" fill="none" xmlns="http://www.w3.org/2000/svg">
<path d="M19.4885 18.7226C18.9305 19.2045 18.3232 19.6263 17.6773 19.9811C17.8015 19.883 17.4122 19.4726 17.5297 19.3672C20.4772 16.8006 21.1507 13.4972 19.9614 10.5906C19.8006 10.1984 20.1392 10.0412 20.1409 9.68091C22.8553 12.2499 22.563 16.0451 19.4885 18.7226Z" fill="white"/>
<path d="M20.1402 9.68341C19.1436 8.73989 17.7465 7.96147 15.9322 7.46502L15.9088 7.45898L15.9341 7.46502C16.53 7.62167 16.5764 8.31212 16.9861 8.66036C17.8646 9.40688 18.1037 10.3619 18.1941 11.6247C18.329 13.5015 18.3182 15.3589 16.9487 17.0128C16.23 17.8804 15.322 18.6696 14.2495 19.1335C14.1705 19.1696 14.0908 19.2041 14.0103 19.2373C13.9977 19.2408 13.988 19.2468 13.9753 19.2505C13.4193 19.4716 12.8427 19.6372 12.2535 19.7445C10.0314 20.1651 7.09428 19.9897 3.53955 18.8588C4.86972 19.8934 6.39005 20.6567 8.0143 21.1056C9.63499 21.5484 11.3268 21.6731 12.9952 21.4718C12.9981 21.4718 13.0042 21.4718 13.0078 21.4683C14.1626 21.3322 15.294 21.0419 16.3716 20.6049H16.3751C16.821 20.4241 17.2554 20.2163 17.6766 19.9838C17.8006 19.8842 17.9247 19.7824 18.0428 19.6776C21.3873 16.7646 22.1453 12.8128 20.1402 9.68341Z" fill="white"/>
<path d="M14.0103 19.2352C18.1657 17.5398 18.3893 13.2428 13.5603 10.8243C10.0519 9.06624 11.6015 6.27788 15.9334 7.46481C20.7727 8.73728 19.3419 17.1758 14.0103 19.2352Z" fill="white"/>
<path d="M20.4615 5.14268C15.8946 3.68885 12.3525 3.81417 10.0274 4.75105L9.99312 4.76431C6.53721 6.17476 5.80037 9.38422 8.42846 11.8153C7.73558 11.2399 6.9451 10.6291 6.60409 9.8518C6.16668 8.85888 6.03534 7.63099 6.21007 6.59831C6.44683 5.20172 7.32829 3.9413 8.77971 3.17251C9.35684 2.86524 10.2263 2.64653 11.009 2.52844C14.0799 2.16092 17.4912 2.84356 20.4615 5.14268Z" fill="white"/>
<path d="M9.20157 16.7673C8.90089 16.6703 8.56289 16.6239 8.28573 16.5126C4.75872 15.0924 2.8747 12.4499 2.94218 9.84166C2.99039 7.98899 4.07488 6.11221 5.85165 4.56561C6.35412 4.1288 7.01627 3.75946 7.62661 3.39676L7.63082 3.39496C8.71256 2.95547 9.84923 2.66403 11.009 2.52856C10.7336 2.56954 10.4602 2.62678 10.192 2.70088C5.62752 3.94384 5.35399 9.26274 8.42853 11.8154L8.43154 11.8173C8.96294 12.3083 9.63175 12.7691 10.4433 13.1747C13.6244 14.7701 12.646 17.2138 9.20157 16.7673Z" fill="white"/>
<path d="M9.19823 16.77C8.816 16.7193 8.43772 16.6423 8.06617 16.5391C1.30315 14.6876 0.310836 8.93623 4.51144 5.27847C5.37844 4.52414 6.43703 3.88068 7.62394 3.39868C7.03056 3.74932 6.46962 4.15219 5.9478 4.60246C1.47486 8.49761 2.36535 14.5551 9.19823 16.77Z" fill="white"/>
</svg>

<svg xmlns="http://www.w3.org/2000/svg" width="24" height="24" fill="none" viewBox="0 0 24 24">
    <path fill="#fff" d="M19.489 18.723c-.559.482-1.166.903-1.812 1.258.125-.098-.265-.508-.147-.614 2.947-2.566 3.62-5.87 2.431-8.776-.16-.393.178-.55.18-.91 2.714 2.569 2.422 6.364-.652 9.042"/>
    <path fill="#fff" d="M20.14 9.683c-.996-.943-2.393-1.722-4.208-2.218l-.023-.006.025.006c.596.157.642.847 1.052 1.195.879.747 1.118 1.702 1.208 2.965.135 1.877.124 3.734-1.245 5.388-.719.867-1.627 1.657-2.7 2.12q-.118.055-.239.104l-.035.014a9 9 0 0 1-1.721.493c-2.223.421-5.16.246-8.714-.885a12.9 12.9 0 0 0 4.474 2.247c1.621.442 3.313.567 4.981.366q.006.001.013-.004a13 13 0 0 0 3.364-.863h.003q.669-.272 1.302-.621.188-.15.366-.306c3.344-2.913 4.102-6.865 2.097-9.995"/>
    <path fill="#fff" d="M14.01 19.235c4.156-1.695 4.38-5.992-.45-8.41-3.508-1.759-1.959-4.547 2.373-3.36 4.84 1.272 3.409 9.71-1.923 11.77"/>
    <path fill="#fff" d="M20.462 5.143c-4.567-1.454-8.11-1.329-10.435-.392l-.034.013c-3.456 1.41-4.193 4.62-1.565 7.051-.692-.575-1.483-1.186-1.824-1.963-.437-.993-.569-2.221-.394-3.254.237-1.396 1.118-2.657 2.57-3.425.577-.308 1.446-.526 2.229-.645 3.07-.367 6.482.316 9.453 2.615"/>
    <path fill="#fff" d="M9.202 16.767c-.301-.097-.64-.143-.916-.254-3.527-1.42-5.411-4.063-5.344-6.671.048-1.853 1.133-3.73 2.91-5.276.502-.437 1.164-.807 1.775-1.17l.004-.001a13 13 0 0 1 3.378-.866 7 7 0 0 0-.817.172c-4.564 1.243-4.838 6.562-1.763 9.114l.003.002c.53.491 1.2.952 2.011 1.358 3.181 1.595 2.203 4.039-1.241 3.592"/>
    <path fill="#fff" d="M9.198 16.77a8 8 0 0 1-1.132-.23C1.303 14.687.311 8.935 4.511 5.277c.867-.754 1.926-1.397 3.113-1.88q-.891.528-1.676 1.204c-4.473 3.896-3.583 9.953 3.25 12.168"/>
</svg>
